images/play-button.svg

<svg height="47" viewBox="0 0 47 47" width="47" xmlns="http://www.w3.org/2000/svg"><g fill="none" fill-rule="evenodd" transform=""><circle cx="23.5" cy="23.5" fill="#fff" r="23.5"/><path d="m31.4361579 21.8536021-11.276614-8.5811373c-.4138373-.3140364-.9632108-.361331-1.4168054-.1172907-.4572088.2421485-.7427385.7340126-.7427385 1.2656042v17.1565993c0 .537267.2855297 1.0272393.7427385 1.2693878.193365.1021564.4048015.1532346.6180452.1532346.2783011 0 .5602164-.0926975.7987602-.2762006l11.276614-8.5735702c.3560085-.2743088.5638307-.6980687.5638307-1.1483136.0018072-.457812-.2114365-.87968-.5638307-1.1483135z" fill="#731982" fill-rule="nonzero"/></g></svg>

<?xml version="1.0" encoding="UTF-8"?>
<svg width="47px" height="47px" viewBox="0 0 47 47" version="1.1" xmlns="http://www.w3.org/2000/svg" xmlns:xlink="http://www.w3.org/1999/xlink">
    <!-- Generator: Sketch 48.2 (47327) - http://www.bohemiancoding.com/sketch -->
    <title>Group 11</title>
    <desc>Created with Sketch.</desc>
    <defs></defs>
    <g id="Desktop-HD-Copy-25" stroke="none" stroke-width="1" fill="none" fill-rule="evenodd" transform="translate(-452.000000, -386.000000)">
        <g id="1-block" transform="translate(-13.000000, 0.000000)">
            <g id="Group-2" transform="translate(263.000000, 219.000000)">
                <g id="кнопка" transform="translate(0.000000, 167.000000)">
                    <g id="Group-11" transform="translate(202.000000, 0.000000)">
                        <circle id="Path" fill="#FFFFFF" cx="23.5" cy="23.5" r="23.5"></circle>
                        <path d="M31.4361579,21.8536021 L20.1595439,13.2724648 C19.7457066,12.9584284 19.1963331,12.9111338 18.7427385,13.1551741 C18.2855297,13.3973226 18,13.8891867 18,14.4207783 L18,31.5773776 C18,32.1146446 18.2855297,32.6046169 18.7427385,32.8467654 C18.9361035,32.9489218 19.14754,33 19.3607837,33 C19.6390848,33 19.9210001,32.9073025 20.1595439,32.7237994 L31.4361579,24.1502292 C31.7921664,23.8759204 31.9999886,23.4521605 31.9999886,23.0019156 C32.0017958,22.5441036 31.7885521,22.1222356 31.4361579,21.8536021 Z" id="Shape" fill="#731982" fill-rule="nonzero"></path>
                    </g>
                </g>
            </g>
        </g>
    </g>
</svg>
